Numix-Circle/48x48/apps/steam_icon_26500.svg

<?xml version="1.0" encoding="UTF-8" standalone="no"?>
<svg
   xmlns:dc="http://purl.org/dc/elements/1.1/"
   xmlns:cc="http://creativecommons.org/ns#"
   xmlns:rdf="http://www.w3.org/1999/02/22-rdf-syntax-ns#"
   xmlns:svg="http://www.w3.org/2000/svg"
   xmlns="http://www.w3.org/2000/svg"
   xmlns:sodipodi="http://sodipodi.sourceforge.net/DTD/sodipodi-0.dtd"
   xmlns:inkscape="http://www.inkscape.org/namespaces/inkscape"
   viewBox="0 0 48 48"
   id="svg2"
   version="1.1"
   inkscape:version="0.91 r13725"
   sodipodi:docname="steam_icon_26500.svg"
   inkscape:export-filename="/home/ismael/Imágenes/icon.png"
   inkscape:export-xdpi="300"
   inkscape:export-ydpi="300">
  <metadata
     id="metadata141">
    <rdf:RDF>
      <cc:Work
         rdf:about="">
        <dc:format>image/svg+xml</dc:format>
        <dc:type
           rdf:resource="http://purl.org/dc/dcmitype/StillImage" />
      </cc:Work>
    </rdf:RDF>
  </metadata>
  <sodipodi:namedview
     pagecolor="#ffffff"
     bordercolor="#666666"
     borderopacity="1"
     objecttolerance="10"
     gridtolerance="10"
     guidetolerance="10"
     inkscape:pageopacity="0"
     inkscape:pageshadow="2"
     inkscape:window-width="1280"
     inkscape:window-height="998"
     id="namedview139"
     showgrid="true"
     inkscape:object-paths="true"
     inkscape:snap-intersection-paths="true"
     inkscape:object-nodes="true"
     inkscape:snap-smooth-nodes="true"
     inkscape:snap-object-midpoints="true"
     inkscape:snap-center="true"
     inkscape:zoom="6.3940506"
     inkscape:cx="1.2797641"
     inkscape:cy="24.935066"
     inkscape:window-x="0"
     inkscape:window-y="0"
     inkscape:window-maximized="1"
     inkscape:current-layer="svg2">
    <inkscape:grid
       type="xygrid"
       id="grid4269" />
  </sodipodi:namedview>
  <defs
     id="defs4">
    <linearGradient
       id="linearGradient3764"
       x1="1"
       x2="47"
       gradientUnits="userSpaceOnUse"
       gradientTransform="matrix(0,-1,1,0,-1.5e-6,47.999998)">
      <stop
         stop-color="#3d3d3d"
         stop-opacity="1"
         id="stop7" />
      <stop
         offset="1"
         stop-color="#474747"
         stop-opacity="1"
         id="stop9" />
    </linearGradient>
    <clipPath
       id="clipPath-790522996">
      <g
         transform="translate(0,-1004.3622)"
         id="g12">
        <path
           d="m -24 13 c 0 1.105 -0.672 2 -1.5 2 -0.828 0 -1.5 -0.895 -1.5 -2 0 -1.105 0.672 -2 1.5 -2 0.828 0 1.5 0.895 1.5 2 z"
           transform="matrix(15.333333,0,0,11.5,414.99999,878.8622)"
           fill="#1890d0"
           id="path14" />
      </g>
    </clipPath>
    <clipPath
       id="clipPath-800858447">
      <g
         transform="translate(0,-1004.3622)"
         id="g17">
        <path
           d="m -24 13 c 0 1.105 -0.672 2 -1.5 2 -0.828 0 -1.5 -0.895 -1.5 -2 0 -1.105 0.672 -2 1.5 -2 0.828 0 1.5 0.895 1.5 2 z"
           transform="matrix(15.333333,0,0,11.5,414.99999,878.8622)"
           fill="#1890d0"
           id="path19" />
      </g>
    </clipPath>
  </defs>
  <g
     id="g21">
    <path
       d="m 36.31 5 c 5.859 4.062 9.688 10.831 9.688 18.5 c 0 12.426 -10.07 22.5 -22.5 22.5 c -7.669 0 -14.438 -3.828 -18.5 -9.688 c 1.037 1.822 2.306 3.499 3.781 4.969 c 4.085 3.712 9.514 5.969 15.469 5.969 c 12.703 0 23 -10.298 23 -23 c 0 -5.954 -2.256 -11.384 -5.969 -15.469 c -1.469 -1.475 -3.147 -2.744 -4.969 -3.781 z m 4.969 3.781 c 3.854 4.113 6.219 9.637 6.219 15.719 c 0 12.703 -10.297 23 -23 23 c -6.081 0 -11.606 -2.364 -15.719 -6.219 c 4.16 4.144 9.883 6.719 16.219 6.719 c 12.703 0 23 -10.298 23 -23 c 0 -6.335 -2.575 -12.06 -6.719 -16.219 z"
       opacity="0.05"
       id="path23" />
    <path
       d="m 41.28 8.781 c 3.712 4.085 5.969 9.514 5.969 15.469 c 0 12.703 -10.297 23 -23 23 c -5.954 0 -11.384 -2.256 -15.469 -5.969 c 4.113 3.854 9.637 6.219 15.719 6.219 c 12.703 0 23 -10.298 23 -23 c 0 -6.081 -2.364 -11.606 -6.219 -15.719 z"
       opacity="0.1"
       id="path25" />
    <path
       d="m 31.25 2.375 c 8.615 3.154 14.75 11.417 14.75 21.13 c 0 12.426 -10.07 22.5 -22.5 22.5 c -9.708 0 -17.971 -6.135 -21.12 -14.75 a 23 23 0 0 0 44.875 -7 a 23 23 0 0 0 -16 -21.875 z"
       opacity="0.2"
       id="path27" />
  </g>
  <g
     id="g29"
     style="fill:#eee1ab;fill-opacity:1">
    <path
       d="m 24 1 c 12.703 0 23 10.297 23 23 c 0 12.703 -10.297 23 -23 23 -12.703 0 -23 -10.297 -23 -23 0 -12.703 10.297 -23 23 -23 z"
       id="path31"
       style="fill:#eee1ab;fill-opacity:1"
       fill-opacity="1"
       fill="url(#linearGradient3764)" />
  </g>
  <path
     style="opacity:0.1;fill:#000000;fill-opacity:0.98319113;stroke:none;stroke-width:10;stroke-linecap:round;stroke-linejoin:round;stroke-miterlimit:4;stroke-dasharray:none"
     d="m 23,11 -0.964844,2.894531 c -0.973958,0.26305 -1.909068,0.653117 -2.78125,1.160157 L 16.515625,13.685547 13.685547,16.515625 15.052734,19.25 c -0.502971,0.872784 -0.889088,1.807869 -1.148437,2.78125 L 11,23 l 0,4 2.894531,0.964844 c 0.26305,0.973958 0.653117,1.909068 1.160157,2.78125 l -1.369141,2.738281 2.830078,2.830078 L 19.25,34.947266 c 0.872784,0.502971 1.807869,0.889088 2.78125,1.148437 L 23,39 l 4,0 0.964844,-2.894531 c 0.973958,-0.26305 1.909068,-0.653117 2.78125,-1.160157 l 2.738281,1.369141 2.830078,-2.830078 L 34.947266,30.75 c 0.502971,-0.872784 0.889088,-1.807869 1.148437,-2.78125 L 39,27 39,23 36.105469,22.035156 c -0.26305,-0.973958 -0.653117,-1.909068 -1.160157,-2.78125 L 36.314453,16.515625 33.484375,13.685547 30.75,15.052734 C 29.877216,14.549763 28.942131,14.163646 27.96875,13.904297 L 27,11 23,11 Z"
     id="path4182"
     inkscape:connector-curvature="0" />
  <g
     id="g33" />
  <g
     id="g135">
    <path
       d="m 40.03 7.531 c 3.712 4.084 5.969 9.514 5.969 15.469 0 12.703 -10.297 23 -23 23 c -5.954 0 -11.384 -2.256 -15.469 -5.969 4.178 4.291 10.01 6.969 16.469 6.969 c 12.703 0 23 -10.298 23 -23 0 -6.462 -2.677 -12.291 -6.969 -16.469 z"
       opacity="0.1"
       id="path137" />
  </g>
  <path
     inkscape:connector-curvature="0"
     style="opacity:1;fill:#9c967c;fill-opacity:0.98319113;stroke:none;stroke-width:10;stroke-linecap:round;stroke-linejoin:round;stroke-miterlimit:4;stroke-dasharray:none"
     d="m 22,10 -0.964844,2.894531 c -0.973958,0.26305 -1.909068,0.653117 -2.78125,1.160157 L 15.515625,12.685547 12.685547,15.515625 14.052734,18.25 c -0.502971,0.872784 -0.889088,1.807869 -1.148437,2.78125 L 10,22 l 0,4 2.894531,0.964844 c 0.26305,0.973958 0.653117,1.909068 1.160157,2.78125 l -1.369141,2.738281 2.830078,2.830078 L 18.25,33.947266 c 0.872784,0.502971 1.807869,0.889088 2.78125,1.148437 L 22,38 l 4,0 0.964844,-2.894531 c 0.973958,-0.26305 1.909068,-0.653117 2.78125,-1.160157 l 2.738281,1.369141 2.830078,-2.830078 L 33.947266,29.75 c 0.502971,-0.872784 0.889088,-1.807869 1.148437,-2.78125 L 38,26 38,22 35.105469,21.035156 c -0.26305,-0.973958 -0.653117,-1.909068 -1.160157,-2.78125 L 35.314453,15.515625 32.484375,12.685547 29.75,14.052734 C 28.877216,13.549763 27.942131,13.163646 26.96875,12.904297 L 26,10 Z"
     id="path4199"
     sodipodi:nodetypes="ccccccccccccccccccccccccccccccccc" />
  <circle
     r="4"
     cy="25"
     cx="25"
     id="circle4187"
     style="opacity:0.1;fill:#000000;fill-opacity:1;fill-rule:nonzero;stroke:none;stroke-width:30.89999962;stroke-linejoin:round;stroke-miterlimit:4;stroke-dasharray:none;stroke-opacity:1" />
  <circle
     style="opacity:1;fill:#ccae74;fill-opacity:1;fill-rule:nonzero;stroke:none;stroke-width:30.89999962;stroke-linejoin:round;stroke-miterlimit:4;stroke-dasharray:none;stroke-opacity:1"
     id="path3378"
     cx="24"
     cy="24"
     r="4" />
</svg>

<svg xmlns="http://www.w3.org/2000/svg" viewBox="0 0 48 48">
 <g>
  <path d="m 36.31 5 c 5.859 4.062 9.688 10.831 9.688 18.5 c 0 12.426 -10.07 22.5 -22.5 22.5 c -7.669 0 -14.438 -3.828 -18.5 -9.688 c 1.037 1.822 2.306 3.499 3.781 4.969 c 4.085 3.712 9.514 5.969 15.469 5.969 c 12.703 0 23 -10.298 23 -23 c 0 -5.954 -2.256 -11.384 -5.969 -15.469 c -1.469 -1.475 -3.147 -2.744 -4.969 -3.781 z m 4.969 3.781 c 3.854 4.113 6.219 9.637 6.219 15.719 c 0 12.703 -10.297 23 -23 23 c -6.081 0 -11.606 -2.364 -15.719 -6.219 c 4.16 4.144 9.883 6.719 16.219 6.719 c 12.703 0 23 -10.298 23 -23 c 0 -6.335 -2.575 -12.06 -6.719 -16.219 z" style="opacity:0.05"/>
  <path d="m 41.28 8.781 c 3.712 4.085 5.969 9.514 5.969 15.469 c 0 12.703 -10.297 23 -23 23 c -5.954 0 -11.384 -2.256 -15.469 -5.969 c 4.113 3.854 9.637 6.219 15.719 6.219 c 12.703 0 23 -10.298 23 -23 c 0 -6.081 -2.364 -11.606 -6.219 -15.719 z" style="opacity:0.1"/>
  <path d="m 31.25 2.375 c 8.615 3.154 14.75 11.417 14.75 21.13 c 0 12.426 -10.07 22.5 -22.5 22.5 c -9.708 0 -17.971 -6.135 -21.12 -14.75 a 23 23 0 0 0 44.875 -7 a 23 23 0 0 0 -16 -21.875 z" style="opacity:0.2"/>
 </g>
 <g style="fill:#eee1ab;fill-opacity:1">
  <path d="m 24 1 c 12.703 0 23 10.297 23 23 c 0 12.703 -10.297 23 -23 23 -12.703 0 -23 -10.297 -23 -23 0 -12.703 10.297 -23 23 -23 z"/>
 </g>
 <path d="m 23 11 -0.965 2.895 c -0.974 0.263 -1.909 0.653 -2.781 1.16 l -2.738 -1.369 -2.83 2.83 1.367 2.734 c -0.503 0.873 -0.889 1.808 -1.148 2.781 l -2.904 0.969 l 0 4 2.895 0.965 c 0.263 0.974 0.653 1.909 1.16 2.781 l -1.369 2.738 2.83 2.83 l 2.734 -1.367 c 0.873 0.503 1.808 0.889 2.781 1.148 l 0.969 2.904 l 4 0 0.965 -2.895 c 0.974 -0.263 1.909 -0.653 2.781 -1.16 l 2.738 1.369 2.83 -2.83 l -1.367 -2.734 c 0.503 -0.873 0.889 -1.808 1.148 -2.781 l 2.904 -0.969 0 -4 -2.895 -0.965 c -0.263 -0.974 -0.653 -1.909 -1.16 -2.781 l 1.369 -2.738 -2.83 -2.83 -2.734 1.367 c -0.873 -0.503 -1.808 -0.889 -2.781 -1.148 l -0.969 -2.904 -4 0" style="fill:#000;opacity:0.1;fill-opacity:0.983;stroke:none"/>
 <g>
  <path d="m 40.03 7.531 c 3.712 4.084 5.969 9.514 5.969 15.469 0 12.703 -10.297 23 -23 23 c -5.954 0 -11.384 -2.256 -15.469 -5.969 4.178 4.291 10.01 6.969 16.469 6.969 c 12.703 0 23 -10.298 23 -23 0 -6.462 -2.677 -12.291 -6.969 -16.469 z" style="opacity:0.1"/>
 </g>
 <path d="m 22 10 -0.965 2.895 c -0.974 0.263 -1.909 0.653 -2.781 1.16 l -2.738 -1.369 -2.83 2.83 1.367 2.734 c -0.503 0.873 -0.889 1.808 -1.148 2.781 l -2.904 0.969 l 0 4 2.895 0.965 c 0.263 0.974 0.653 1.909 1.16 2.781 l -1.369 2.738 2.83 2.83 l 2.734 -1.367 c 0.873 0.503 1.808 0.889 2.781 1.148 l 0.969 2.904 l 4 0 0.965 -2.895 c 0.974 -0.263 1.909 -0.653 2.781 -1.16 l 2.738 1.369 2.83 -2.83 l -1.367 -2.734 c 0.503 -0.873 0.889 -1.808 1.148 -2.781 l 2.904 -0.969 0 -4 -2.895 -0.965 c -0.263 -0.974 -0.653 -1.909 -1.16 -2.781 l 1.369 -2.738 -2.83 -2.83 -2.734 1.367 c -0.873 -0.503 -1.808 -0.889 -2.781 -1.148 l -0.969 -2.904" style="fill:#9c967c;opacity:1;fill-opacity:0.983;stroke:none"/>
 <circle r="4" cy="25" cx="25" style="fill:#000;opacity:0.1;fill-opacity:1;stroke:none;fill-rule:nonzero"/>
 <circle cx="24" cy="24" r="4" style="fill:#ccae74;opacity:1;fill-opacity:1;stroke:none;fill-rule:nonzero"/>
</svg>
